img/footer/Instagram.svg

<svg width="20" height="20" viewBox="0 0 20 20" fill="none" xmlns="http://www.w3.org/2000/svg">
<path fill-rule="evenodd" clip-rule="evenodd" d="M10 1.5C12.3085 1.5 12.5979 1.50978 13.5045 1.55115C14.4093 1.59242 15.0272 1.73612 15.5678 1.94626C16.1268 2.16345 16.6008 2.45409 17.0734 2.92663C17.5459 3.3992 17.8366 3.87323 18.0538 4.43218C18.2639 4.97284 18.4076 5.59073 18.4488 6.49546C18.4902 7.40208 18.5 7.69154 18.5 10C18.5 12.3085 18.4902 12.5979 18.4488 13.5045C18.4076 14.4093 18.2639 15.0272 18.0538 15.5678C17.8366 16.1268 17.5459 16.6008 17.0734 17.0734C16.6008 17.5459 16.1268 17.8366 15.5678 18.0538C15.0272 18.2639 14.4093 18.4076 13.5045 18.4488C12.5979 18.4902 12.3085 18.5 10 18.5C7.69154 18.5 7.40208 18.4902 6.49546 18.4488C5.59073 18.4076 4.97284 18.2639 4.43218 18.0538C3.87323 17.8366 3.3992 17.5459 2.92663 17.0734C2.45409 16.6008 2.16345 16.1268 1.94626 15.5678C1.73612 15.0272 1.59242 14.4093 1.55115 13.5045C1.50978 12.5979 1.5 12.3085 1.5 10C1.5 7.69154 1.50978 7.40208 1.55115 6.49546C1.59242 5.59073 1.73612 4.97284 1.94626 4.43218C2.16345 3.87323 2.45409 3.3992 2.92663 2.92663C3.3992 2.45409 3.87323 2.16345 4.43218 1.94626C4.97284 1.73612 5.59073 1.59242 6.49546 1.55115C7.40208 1.50978 7.69154 1.5 10 1.5ZM9.99734 12.8298C11.5616 12.8298 12.8298 11.5616 12.8298 9.99734C12.8298 8.433 11.5616 7.16488 9.99734 7.16488C8.433 7.16488 7.16488 8.433 7.16488 9.99734C7.16488 11.5616 8.433 12.8298 9.99734 12.8298ZM9.99734 5.63383C12.4072 5.63383 14.3608 7.58742 14.3608 9.99734C14.3608 12.4072 12.4072 14.3608 9.99734 14.3608C7.58742 14.3608 5.63383 12.4072 5.63383 9.99734C5.63383 7.58742 7.58742 5.63383 9.99734 5.63383ZM15.8556 5.37224C15.8556 5.94601 15.3904 6.41111 14.8166 6.41111C14.2429 6.41111 13.7778 5.94601 13.7778 5.37224C13.7778 4.79847 14.2429 4.33333 14.8166 4.33333C15.3904 4.33333 15.8556 4.79847 15.8556 5.37224Z" fill="white"/>
</svg>

<svg width="20" height="20" fill="none" xmlns="http://www.w3.org/2000/svg"><path fill-rule="evenodd" clip-rule="evenodd" d="M10 1.5c2.309 0 2.598.01 3.505.051.904.041 1.522.185 2.063.395a4.166 4.166 0 011.505.98c.473.473.764.947.98 1.506.21.54.355 1.159.396 2.063.041.907.051 1.197.051 3.505 0 2.309-.01 2.598-.051 3.505-.041.904-.185 1.522-.395 2.063a4.167 4.167 0 01-.98 1.505 4.167 4.167 0 01-1.506.98c-.54.21-1.159.355-2.063.396-.907.041-1.197.051-3.505.051s-2.598-.01-3.505-.051c-.904-.041-1.522-.185-2.063-.395a4.167 4.167 0 01-1.505-.98 4.166 4.166 0 01-.98-1.506c-.21-.54-.355-1.159-.396-2.063C1.51 12.598 1.5 12.308 1.5 10s.01-2.598.051-3.505c.041-.904.185-1.522.395-2.063a4.166 4.166 0 01.98-1.505 4.166 4.166 0 011.506-.98c.54-.21 1.159-.355 2.063-.396C7.402 1.51 7.692 1.5 10 1.5zm-.003 11.33a2.833 2.833 0 100-5.665 2.833 2.833 0 000 5.665zm0-7.196a4.363 4.363 0 110 8.727 4.363 4.363 0 010-8.727zm5.859-.262a1.039 1.039 0 11-2.078 0 1.039 1.039 0 012.078 0z" fill="#fff"/></svg>
